svg/pg.svg

<svg xmlns="http://www.w3.org/2000/svg" xmlns:xlink="http://www.w3.org/1999/xlink" width="600" height="450" viewBox="0 0 768 576">
<title>Flag of Papua New Guinea</title>
<g>
<rect width="768" height="576" x="0" y="0" id="rect3372" style="fill:#000;fill-opacity:1;stroke:none;stroke-opacity:1" />
<path d="M 0,0 L 768,0 L 768,576 L 0,0 z" id="path4249" style="fill:#ce1126;fill-opacity:1;fill-rule:evenodd;stroke:none;stroke-width:1px;stroke-linecap:butt;stroke-linejoin:miter;stroke-opacity:1" />
<path d="M 475.48467,167.35351 C 469.81245,174.67996 456.38967,159.98385 440.30967,159.64818 C 424.22967,159.31251 412.839,175.05784 408.14967,180.41851 C 403.46034,185.77918 388.38534,213.91818 388.72,216.93318 C 389.05467,219.94818 398.10067,208.55851 401.45034,206.54851 C 401.785,210.56851 397.765,215.25885 398.77,216.59851 C 399.775,217.93818 410.49433,208.55851 414.17967,208.22385 C 415.18467,210.90418 412.16967,213.58351 413.17467,217.60351 C 414.51534,218.94318 420.54534,210.90318 424.56534,209.22885 C 425.23467,212.24385 420.88,217.93918 423.22467,221.62351 C 424.9,221.95818 434.949,210.23385 438.29967,208.89318 C 441.65034,207.55251 436.62433,219.94818 438.29967,220.95318 C 441.31467,218.94318 450.69534,208.22284 453.71034,206.88318 C 456.72534,205.54351 453.37567,220.61851 454.71534,220.61851 C 458.39967,217.93818 467.78034,205.20885 468.78534,203.19885 C 469.79034,201.18885 467.78034,222.62851 478.165,234.01918 C 488.54967,245.40985 504.29601,258.47385 505.97034,258.47385 C 507.98034,254.78851 505.30101,247.08418 506.97534,247.41885 C 511.66467,252.44385 520.375,259.81351 522.385,259.81351 C 524.395,259.81351 521.04433,251.77351 523.72467,251.77351 C 529.08534,256.79851 544.495,276.56385 574.645,285.60885 C 572.635,279.91351 568.27933,274.88851 567.94467,272.20918 C 569.95467,272.54385 576.99067,275.89452 578.33034,275.55885 C 579.67,275.22318 563.59,255.45885 564.595,252.77851 C 568.28034,252.44385 569.95567,254.78851 571.29534,253.11318 C 569.62,250.43385 555.55,234.68851 555.55,231.00318 C 555.55,227.31784 559.90567,231.67351 561.24534,231.00318 C 562.585,230.33284 555.88567,216.26284 557.22534,214.58851 C 558.565,212.91418 573.30433,223.63351 576.98967,223.63351 C 580.675,223.63351 577.99467,210.56851 579.67,209.89818 C 581.34534,209.22784 593.74101,216.93318 596.42034,216.93318 C 599.09967,216.93318 598.765,211.23784 599.77,211.90818 C 600.775,212.57851 629.92,241.72351 619.87,275.89351 C 609.82,300.34918 589.72101,313.41418 560.24034,302.69385 C 561.91467,305.37418 577.66,318.43918 594.745,313.74885 C 611.83,309.05851 632.59933,295.65885 630.25467,262.15918 C 627.91,228.65952 616.854,223.96918 615.17967,218.94418 C 613.50534,213.91918 617.86101,220.28385 621.54534,221.62452 C 625.22967,222.96519 620.875,214.58851 619.87,210.90318 C 618.865,207.21784 630.925,218.60851 633.94,219.61351 C 636.955,220.61851 626.905,192.14385 623.89,190.13385 C 620.875,188.12385 626.905,190.80318 628.915,191.47351 C 630.925,192.14385 610.48933,160.31851 606.13467,160.31851 C 601.78,160.31851 609.819,158.64318 612.16467,158.64318 C 614.51034,158.64318 588.71601,137.87284 584.36034,137.87284 C 580.00467,137.87284 593.739,132.51217 595.07967,132.17751 C 597.42534,132.51217 565.26534,115.09251 536.455,132.51217 C 534.77967,131.17351 550.02351,120.62101 550.525,116.09851 C 550.69284,114.92568 545.50101,112.41318 545.16534,111.07351 C 544.82967,109.73385 553.20534,105.71386 553.54,102.69886 C 551.53,100.01853 547.84467,101.02352 545.83467,100.3542 C 545.33317,97.841696 552.87067,91.643861 552.20034,88.964531 C 551.69784,87.457031 546.16933,86.954531 544.82967,87.959531 C 543.49,88.964531 548.34817,80.924531 547.51,78.579866 C 546.84067,77.574866 544.16034,78.245201 541.48,78.914531 C 539.80467,78.579866 550.19034,64.174196 548.18034,62.164196 C 546.17034,60.154196 518.02933,76.903526 507.64467,95.663861 C 497.26,114.42418 505.30101,129.49918 503.96034,135.86385 C 502.61967,142.22851 500.94433,148.59418 496.58967,148.59418 C 492.235,148.59418 482.18601,141.89385 478.83534,138.54418 C 475.48467,135.19452 474.81534,132.84885 470.125,131.50918 C 465.43467,130.16952 454.71534,134.18952 450.69534,134.52418 C 446.67534,134.85885 430.93,131.50918 429.925,132.51418 C 428.92,133.51918 445.33467,139.54918 449.02,141.55918 C 452.70534,143.56918 453.04101,146.24952 455.72034,147.92385 C 458.39967,149.59818 483.52467,156.96885 475.48467,167.35351 z M 573.64,214.58851 C 581.68,222.62851 635.95,258.80851 635.95,303.02851 C 635.95,347.24851 596.41933,345.90985 585.02967,344.56918 C 597.76,355.28851 646,353.27851 646,303.02851 C 646,258.80851 583.69,214.58851 575.65,210.56851 C 567.61,206.54851 565.6,206.54851 573.64,214.58851 z" id="path3348" style="fill:#fcd116" />
<use transform="translate(87.582,-160)" id="use2390" x="0" y="0" width="768" height="576" xlink:href="#polygon5131" />
<polygon points="192.54,176.394 200.94,205.234 229.958,205.234 207.048,222.86 215.449,250.898 192.54,233.273 169.631,250.096 178.031,222.86 155.122,205.234 183.376,205.234 192.54,176.394 " transform="translate(-0.122,266.606)" id="polygon5131" style="fill:#fff" />
<polygon points="192.54,176.394 200.94,205.234 229.958,205.234 207.048,222.86 215.449,250.898 192.54,233.273 169.631,250.096 178.031,222.86 155.122,205.234 183.376,205.234 192.54,176.394 " transform="matrix(0.5,0,0,0.5,135.439,293.551)" id="polygon5133" style="fill:#fff" />
<use transform="translate(-87.582,-104.504)" id="use2392" x="0" y="0" width="768" height="576" xlink:href="#use2390" />
<use transform="translate(-88,112.504)" id="use2394" x="0" y="0" width="768" height="576" xlink:href="#use2392" />
</g>
</svg>

<?xml version="1.0" encoding="UTF-8"?>
<svg width="600" height="450" viewBox="0 0 768 576" xmlns="http://www.w3.org/2000/svg" xmlns:xlink="http://www.w3.org/1999/xlink">
  <title>Flag of Papua New Guinea</title>
  <rect width="768" height="576"/>
  <path d="m0 0h768v576l-768-576z" fill="#ce1126" fill-rule="evenodd"/>
  <path d="m475.48 167.35c-5.6722 7.3264-19.095-7.3697-35.175-7.7053s-27.471 15.41-32.16 20.77-19.764 33.5-19.43 36.515c0.33467 3.015 9.3807-8.3747 12.73-10.385 0.33466 4.02-3.6853 8.7103-2.6803 10.05s11.724-8.04 15.41-8.3747c1.005 2.6803-2.01 5.3597-1.005 9.3797 1.3407 1.3397 7.3707-6.7003 11.391-8.3747 0.66933 3.015-3.6853 8.7103-1.3407 12.395 1.6753 0.33467 11.724-11.39 15.075-12.73s-1.6753 11.055 0 12.06c3.015-2.01 12.396-12.73 15.411-14.07 3.015-1.3397-0.33467 13.735 1.005 13.735 3.6843-2.6803 13.065-15.41 14.07-17.42s-1.005 19.43 9.3797 30.82c10.385 11.391 26.131 24.455 27.805 24.455 2.01-3.6853-0.66933-11.39 1.005-11.055 4.6893 5.025 13.4 12.395 15.41 12.395s-1.3407-8.04 1.3397-8.04c5.3607 5.025 20.77 24.79 50.92 33.835-2.01-5.6953-6.3657-10.72-6.7003-13.4 2.01 0.33467 9.046 3.6853 10.386 3.3497 1.3397-0.33567-14.74-20.1-13.735-22.78 3.6853-0.33466 5.3607 2.01 6.7003 0.33467-1.6753-2.6793-15.745-18.425-15.745-22.11 0-3.6853 4.3557 0.67033 5.6953 0 1.3397-0.67034-5.3597-14.74-4.02-16.415 1.3397-1.6743 16.079 9.045 19.764 9.045 3.6853 0 1.005-13.065 2.6803-13.735 1.6753-0.67034 14.071 7.035 16.75 7.035s2.3447-5.6953 3.3497-5.025c1.005 0.67033 30.15 29.815 20.1 63.985-10.05 24.456-30.149 37.521-59.63 26.8 1.6743 2.6803 17.42 15.745 34.505 11.055 17.085-4.6903 37.854-18.09 35.51-51.59-2.3447-33.5-13.401-38.19-15.075-43.215s2.6813 1.3397 6.3657 2.6803-0.67034-7.036-1.6753-10.721c-1.005-3.6853 11.055 7.7053 14.07 8.7103s-7.035-27.47-10.05-29.48 3.015 0.66933 5.025 1.3397c2.01 0.67034-18.426-31.155-22.78-31.155-4.3547 0 3.6843-1.6753 6.03-1.6753s-23.449-20.77-27.804-20.77 9.3787-5.3607 10.719-5.6953c2.3457 0.33466-29.814-17.085-58.625 0.33466-1.6753-1.3387 13.569-11.891 14.07-16.414 0.16784-1.1728-5.024-3.6853-5.3597-5.025-0.33567-1.3397 8.04-5.3596 8.3747-8.3746-2.01-2.6803-5.6953-1.6753-7.7053-2.3447-0.5015-2.5125 7.036-8.7103 6.3657-11.39-0.5025-1.5075-6.031-2.01-7.3707-1.005s3.5185-7.035 2.6803-9.3797c-0.66933-1.005-3.3497-0.33466-6.03 0.33466-1.6753-0.33466 8.7103-14.74 6.7003-16.75s-30.151 14.739-40.536 33.5c-10.385 18.76-2.3437 33.835-3.6843 40.2-1.3407 6.3647-3.016 12.73-7.3707 12.73s-14.404-6.7003-17.754-10.05c-3.3507-3.3497-4.02-5.6953-8.7103-7.035s-15.41 2.6803-19.43 3.015c-4.02 0.33467-19.765-3.015-20.77-2.01s15.41 7.035 19.095 9.045c3.6853 2.01 4.021 4.6903 6.7003 6.3647s27.804 9.045 19.764 19.43zm98.155 47.235c8.04 8.04 62.31 44.22 62.31 88.44s-39.531 42.881-50.92 41.541c12.73 10.719 60.97 8.7093 60.97-41.541 0-44.22-62.31-88.44-70.35-92.46s-10.05-4.02-2.01 4.02z" fill="#fcd116"/>
  <use id="use2390" transform="translate(87.582,-160)" width="768" height="576" xlink:href="#polygon5131"/>
  <polygon id="polygon5131" transform="translate(-.122 266.61)" points="192.54 176.39 200.94 205.23 229.96 205.23 207.05 222.86 215.45 250.9 192.54 233.27 169.63 250.1 178.03 222.86 155.12 205.23 183.38 205.23" fill="#fff"/>
  <polygon transform="matrix(.5 0 0 .5 135.44 293.55)" points="192.54 176.39 200.94 205.23 229.96 205.23 207.05 222.86 215.45 250.9 192.54 233.27 169.63 250.1 178.03 222.86 155.12 205.23 183.38 205.23" fill="#fff"/>
  <use id="use2392" transform="translate(-87.582 -104.5)" width="768" height="576" xlink:href="#use2390"/>
  <use transform="translate(-88 112.5)" width="768" height="576" xlink:href="#use2392"/>
</svg>
